X: 439
T: Duoyu jitian bujian meimei xiaoyengyeng
%%abc-version 2.0
%%abcx-abcm2ps-target-version 5.9.1 (29 Sep 2008)
%%abc-creator hum2abc beta
%%abcx-conversion-date 2013/10/02 07:52:30
%%abc-edited-by Helmut Schaffrath
%%humdrum-veritas 2682039690
%%humdrum-veritas-data 3913474487
%%continueall 1
%%barnumbers 0
L: 1/8
M: 2/4
K: G
A ^G/ A/ E E [I:setbarnb 1]| 
A ^G/ A/ E E | 
B> B B d | 
e4 | 
B> b B B | 
^G A =G A | 
e2G F | 
E4 |]  



